X:0627
T:Col: Wemys's Reel
M:C|
L:1/8
Q:1/2=104
I: :: ||
N:initial rest added to make things add up
Z:Jack Campin * www.campin.me.uk * 2009
K:G
z| g2  dc {c}B2  AG | FGAB    cAAf|(g/f/e/f/) gd cBAG   | DGAc    BGG:|
B|(DG)(BG)  (DG)(BG)|(DG)(BG) cAAB|(DG)(BG)     (DG)(BG)|(DG)(Ac) BGGB|
  (DG)(BG)  (DG)(BG)|(DG)(BG) cAAc| Bdef         gedc   | BdAc    BGG|]
<end>
<start>
